flaticon/household/cactus-1.svg

<svg xmlns="http://www.w3.org/2000/svg" width="32" height="32" viewBox="0 0 24 24">
    <path d="M 18.132812 15.003906 L 17.316406 15.003906 L 17.316406 7.546875 L 16.089844 5.09375 L 15.679688 5.910156 L 15.679688 3.066406 L 14.453125 0 L 13.226562 3.066406 L 13.226562 5.09375 L 12.816406 4.277344 L 11.589844 6.730469 L 11.589844 7.957031 L 11.183594 7.136719 L 10.773438 7.957031 L 10.773438 4.78125 L 9.546875 0.429688 L 8.335938 4.667969 L 8.335938 5.9375 L 7.910156 5.09375 L 6.683594 7.546875 L 6.683594 15.003906 L 5.867188 15.003906 L 5.867188 18.273438 L 6.933594 18.273438 L 8.414062 24 L 15.589844 24 L 17.066406 18.273438 L 18.132812 18.273438 Z M 16.089844 6.921875 L 16.5 7.742188 L 16.5 15.003906 L 15.679688 15.003906 L 15.679688 7.742188 Z M 14.042969 3.222656 L 14.453125 2.203125 L 14.863281 3.222656 L 14.863281 15.003906 L 14.042969 15.003906 Z M 12.410156 6.921875 L 12.816406 6.105469 L 13.226562 6.921875 L 13.226562 15.003906 L 12.410156 15.003906 Z M 11.183594 8.96875 L 11.589844 9.785156 L 11.589844 15.003906 L 10.773438 15.003906 L 10.773438 9.785156 Z M 9.136719 4.839844 L 9.546875 3.40625 L 9.957031 4.839844 L 9.957031 15.003906 L 9.136719 15.003906 Z M 7.5 7.742188 L 7.910156 6.921875 L 8.320312 7.742188 L 8.320312 15.003906 L 7.5 15.003906 Z M 14.953125 23.183594 L 9.046875 23.183594 L 7.777344 18.273438 L 16.222656 18.273438 Z M 17.316406 17.457031 L 6.683594 17.457031 L 6.683594 15.820312 L 17.316406 15.820312 Z M 17.316406 17.457031"/>
    <path d="M9.957031 19.5L12.410156 19.5C12.632812 19.5 12.816406 19.320312 12.816406 19.09375 12.816406 18.867188 12.632812 18.683594 12.410156 18.683594L9.957031 18.683594C9.730469 18.683594 9.546875 18.867188 9.546875 19.09375 9.546875 19.320312 9.730469 19.5 9.957031 19.5zM13.636719 19.5C13.742188 19.5 13.847656 19.457031 13.925781 19.382812 14.003906 19.304688 14.042969 19.199219 14.042969 19.09375 14.042969 18.988281 14 18.878906 13.925781 18.800781 13.769531 18.652344 13.496094 18.65625 13.34375 18.800781 13.273438 18.878906 13.226562 18.988281 13.226562 19.09375 13.226562 19.199219 13.273438 19.304688 13.34375 19.382812 13.421875 19.457031 13.53125 19.5 13.636719 19.5zM12 19.910156L11.183594 19.910156C10.957031 19.910156 10.773438 20.09375 10.773438 20.320312 10.773438 20.546875 10.957031 20.730469 11.183594 20.730469L12 20.730469C12.226562 20.730469 12.410156 20.546875 12.410156 20.320312 12.410156 20.09375 12.226562 19.910156 12 19.910156zM9.957031 20.730469C10.0625 20.730469 10.167969 20.683594 10.242188 20.609375 10.320312 20.53125 10.363281 20.429688 10.363281 20.320312 10.363281 20.214844 10.320312 20.105469 10.246094 20.03125 10.09375 19.878906 9.816406 19.878906 9.664062 20.03125 9.589844 20.105469 9.546875 20.214844 9.546875 20.320312 9.546875 20.429688 9.589844 20.53125 9.664062 20.609375 9.742188 20.683594 9.847656 20.730469 9.957031 20.730469zM9.957031 20.730469"/>
</svg>

<svg xmlns="http://www.w3.org/2000/svg" width="32" height="32" viewBox="0 0 24 24">
    <path d="M18.133 15.004h-.817V7.547L16.09 5.094l-.41.816V3.066L14.453 0l-1.226 3.066v2.028l-.41-.817L11.59 6.73v1.227l-.406-.82-.41.82V4.781L9.546.43 8.336 4.668v1.27l-.426-.844-1.226 2.453v7.457h-.817v3.27h1.067L8.414 24h7.176l1.476-5.727h1.067zM16.09 6.922l.41.82v7.262h-.82V7.742zm-2.047-3.7l.41-1.019.41 1.02v11.78h-.82zm-1.633 3.7l.406-.817.41.817v8.082h-.816zm-1.226 2.047l.406.816v5.219h-.817V9.785zm-2.047-4.13l.41-1.433.41 1.434v10.164h-.82zM7.5 7.743l.41-.82.41.82v7.262H7.5zm7.453 15.442H9.047l-1.27-4.91h8.446zm2.363-5.727H6.684V15.82h10.632zm0 0"/>
    <path d="M9.957 19.5h2.453c.223 0 .406-.18.406-.406a.41.41 0 0 0-.406-.41H9.957a.41.41 0 0 0-.41.41c0 .226.183.406.41.406zm0 0M13.637 19.5c.105 0 .21-.043.289-.117a.408.408 0 0 0 .117-.29.435.435 0 0 0-.117-.292.44.44 0 0 0-.582 0 .454.454 0 0 0-.117.293c0 .105.046.21.117.289a.435.435 0 0 0 .293.117zm0 0M12 19.91h-.816a.41.41 0 1 0 0 .82H12a.41.41 0 1 0 0-.82zm0 0M9.957 20.73a.412.412 0 0 0 .29-.699.428.428 0 0 0-.583 0 .418.418 0 0 0 0 .578.431.431 0 0 0 .293.121zm0 0"/>
</svg>
